X:13
T:THE CRANBERRY TART/The Yellow Little Boy # 3
M:6/8
L:1/8
Q:116
R:JIG
K:D
|:"D"AFD DFA|  DFA AdB| AFD DFA| "Bm" B2 A "G" BdB|!
"D" AFD DFA| "D" DFA "A7" ABc| "D" def "A7" gfe |1 "Bm" fdB "G" BdB:|2"Bm" fdB "G" B3||!
|:"D" Add fdd| edd fdd| Add fdd | "Bm" edB "G" B2 d|!
|"D" Add fdd | edd fdd | "A7" gfe " Bm" fdB|1 "F#m" AFA "Bm" B3:|2 "F#"AFA "D7" B2 A||
